X:42
T:Man in the Moon
M:6/8
L:1/8
B:Thompson's Compleat Collection of 200 Favourite Country Dances, vol. 3 (London, 1773)
Z:Transcribed and edited by Flynn Titford-Mock, 2007
Z:abc's:AK/Fiddler's Companion
K:D
D>FD F>AF | E>FE G>AB | ABc def | ged {d}c>BA | D>FD F>AF | E>GE G>AB | A>Bc d>ef | g>ec d3 :|
|: f>ag f>ed | c>ed c>BA | B>dc B>AG | F>AG F>ED | f>ag f>ed | c>ed c>BA | Bgf edc | d3 D3 :|

